X: 27712
T: Morning Dew, The
R: reel
M: 4/4
K: Edorian
B2 EB GBEB|B2 GB ADFA|B2 GB FBEB|BcdB ADFA|
BAGF EFGA|B2 GB ADFA|B2 EB GBEB|dcdB ADFA|

